X: 9577
T: David Power
R: barndance
M: 4/4
K: Dmajor
dede d2 A2|defd efge|afdf ecAc|dede d2 A2|
efef e2 B2|fdde fd d2|e/f/g/f/ ed cdec|dAFD EFGE|
FGAF GABA|GBAd cdec|d2 de d4||
f/g/a/g/ fe dedA|dedA Bcde|BGdG BGGd|cAeA cAAG|
FD F/G/A FDDA|GE G/A/B GE E2|B/c/d c/d/e B/c/d c/d/e|
Td2 dA Td2 dA|B2 dg B2 dg|agfe Td2 A2|FDAD FDDA|
GEBE GE E2|cd e2 dc B2|AGFE D2 d2|e2 dc d4||

